X:134
%%etbk:tnset id:47,pos:3,rep:3x,ant:
%%etbk:wsite http://www.thesession.org/tunes/display/2706
%%etbk:pldat 2016-04-11T18:43,2016-03-20T11:33,2015-07-29T18:09,2015-05-17T16:32,2015-02-18T18:03,2015-02-17T18:05,2015-02-12T19:50,2014-12-11T18:51,2014-11-19T16:48,2014-11-15T15:57,2014-09-22T18:15,2014-06-03T17:33,2014-03-21T15:58,2014-03-09T16:51,2014-03-01T17:41,2014-02-27T18:20,2014-02-26T18:00,2014-02-06T18:21,2013-11-19T16:34,2013-10-21T18:57,2013-09-12T18:50,2013-08-26T18:50,2013-05-22T17:28,2013-05-21T17:32,2013-05-10T16:30,2013-05-05T14:51
T:The New Mown Meadow
Z: Piano Box Version by Martin Fleischmann
H: Created 2013-02-19 /  Last Modified 2013-02-19
R:reel
L:1/8
M:4/4
K:Edor
|: "em"!5!B!1!EE!2!D !1!E2!2!F!4!A | !2!B!4!d!3!c!1!A {d}!2!B!1!A!2!F!4!A | !5!B!1!EE!2!D !1!E2!2!F!4!A | "D"!4!A2BA !2!FEF!4!A |
"em"!5!B!1!E !3!(3E!2!E!1!E !1!E2!2!F!4!A | !2!B!4!d!3!c!1!A {d}!2!B!1!A!2!F!1!A | "D"!4!d3B "A"!3!c3B |1 !1!AcB!1!A !2!FEFA:|2 !1!AcB!1!A !2!F!1!A!2!c!3!d | 
|: "A"!4!e2!2!ce !5!fe!2!ce | !4!e2!3!c!1!A {d}!2!B!1!A!2!F!1!A | !4!e2!2!ce !5!fe!3!cB | !1!A!3!cB!1!A "D"!2!F!1!AA2 |
"A"!4!e2!2!ce !5!fe!2!ce | !4!e2!3!c!1!A {d}!2!B!1!A!2!F!1!A | "D"!4!d3B "A"!3!c3B |1 !1!A!3!cB!1!A !2!F!1!A!2!c!3!d:|2 !1!A!3!cB!1!A !2!FE!2!F!4!A||


